cps 0.8


-- face arpeggio silent gap on build?

d1 $ jux rev $ n (sometimes ((subtract 12) <$>) $ palindrome $ offadd 0.125 12 $ slow 2 $ offadd 0.25 7 $ slow 2 $ "f7(3,8) a6(5,8,2) c6(3,8,4) e6*3")
  # sound "[rash,jx]"
  # shape "0.3"
  # resonance "0.2"
  -- # cutoff (scale 2000 300 sine1)

-- comb delay drop

-- sine nudge chop

-- arpy weave II

-- mismatch step tempo

-- gabba 2s

