
d1 $ stack [(jux rev $ slowspread (chop) [16,32,8,4] $ sound "drum cp*2? [arpy:4 arpy:5]/2 drum?")
            # nudge (slow 2 $ sine1),
            runWith 4 ((# speed "1.2") . density 4) $ sometimes (chop 32) $ brak $ sound "drum [drum:1 bd*2]"
            # gain "1.1"
           ]

