
d1 $ palindrome $ chop 2 $ loopAt (1/2) $ sound "bd8:3 wobble"
  # speed "[4 5]/5"
  # gain "1.1"

d2 $ jux rev $ runWith 4 (rev . chop 4) $ off 0.25 (# crush "4") $ off 0.125 (# speed "2") $ s "claus [~ claus]" # n (irand 16)
