
let orb0 = (# orbit "0")
    a = iter 4 $ jux (0.5 <~) $ slow 2 $ ghost $ sound "bd8:4 ~ ~ bd8:4 ~ sd8:4 [~ lt8:3] ~"
            # speed "[1,2]"
            # shape "0.8"
    b = slow 2 $ sound "[beack(5,16), beack:1*16?]" 


do cps 1.2
   solo $ d10 $ (nextSam (now''+1)) ~>
     seqP [(orb0 $ a, 32, 0)
           ]
