-- hmm.. maybe some toms

d1 $ sound "lt ~ ht . mt ht"
  # n (slow 16 $ run 16)

d2 $ stut 4 0.9 2 $ (density 2) $ (sound "lt ~ sn . bd lt")
  # n (slow 16 $ run 16)
  # speed "1.5"
  # gain "0.95"

d3 $ density 2 $ brak $ n "58 [2 2?]" # s "jvrave"
  # shape "0.5"
  # speed "2"
