
d1 $ sound "cp*8"
  # hcutoff (slow 4 $ scale 500 10000 sine1)

-- |*|

d1 $ speed "2 [3 1] 4 0.5" # sound "arpy newnotes" |*| speed "[1 2 3]/3" 

-- off

d1 $ off 0.25 (# speed "2") $ sound "arpy arpy:3"

-- (same as these together )
d1 $ sound "arpy arpy:3"
d2 $ 0.25 ~> (sound "arpy arpy:3" # speed "2")

d1 $ jux rev $ off 0.25 (# speed "2") $ off 0.125 (# crush "3") $ sound "feel [~ feel:2] bd*2 ~"
