-- * Pattern appreciation

-- chunk

d1 $ n "0 [~ 3] [2 0.3] 1" # sound "micron" # speed 2

d1 $ chunk 4 (hurry 2) $ n "0 [~ 3] [2 0.3] 1" # sound "micron"
  # speed 2

-- overlay with itself offset and something applied to it

d1 $ n "0 [~ 3] [2 0.3] 1" # sound "micron" # speed 2

d1 $ off "<0.25 0.5>" (# crush 4) $ n "0 [~ 3] [2 0.3] 1" # sound "micron" # speed 2

