cps 0.715


-- g0 d0
d3 $ n (slow 2 $ "f0(3,8) a0*2") # s "xx"
  # cutoff (scale 1000 3000 sine1)

d4 $ loopAt 4 $ chop 64 $ sound "[shackup]"

d5 $ slow 4 $ chop 16 $ sound "fm:10"
  # gain "0.9"

(d6 $ (loopAt 4 $ chop 16 $ sound "paper"
       # unit "c"
       # gain "0.8"))


