cps 0.715

d1 $ sound "voodoo"

d2 $ stack [jux rev $ (n $ slow 4 $ "f0 a0 g0 d0") # s "xx" # gain "0.95"
           ]

d3 $ loopAt 4 $ chop 64 $ sound "[shackup]"

d4 $ slow 4 $ chop 16 $ sound "fm:10"
  # gain "0.9"

(d5 $ (loopAt 4 $ chop 16 $ sound "paper"
       # unit "c"
       # gain "0.8"))
