d1 $ (jux (rev) $ n "e6 e7 [g7 g6]" # s "jx")
  # gain "1.4"
  # cutoff (slow 4 $ scale 100 2000 saw1)
  # resonance "0.2"

d2 $ (jux (rev) $ n "{e8 e6 e9 e6 e8}%1 e7 [g7 g6]" # s "rash")
  # gain "1.2"
  # cutoff (slow 4 $ scale 100 2000 saw1)
  # resonance "0.2"

d3 $ n "{[1 4 ~] 5, 7*2}" # s "jvrave"
