
d1 $ jux (0.25 <~) $ (off 0.125 (|+| n "7") $ slow 2 $ s (substruct "x [~ x]" $ struct "[x*2 x*3 x*4]/3" ("xx")))
  # n "e7"
  # end "0.1"
  # resonance "0.1"
  # cutoff (slow 4 $ scale 1000 5000 saw1)
  # speed "[1,3 1.5]"



