
d1 $ jux (0.25 <~) $ (off 0.125 (|+| n "7") $ slow 2 $ s (substruct "x [~ x]" $ struct "[x*2 x*3 x*4]/3" ("xx")))
  # n (slow 4 "d7 e7 f7 g7")
  # end "0.1"
  # resonance "0.1"
  # cutoff (slow 4 $ scale 1000 5000 saw1)
  # speed "[1,3 1.5]"

d2 $ every 2 (within (0,0.25) (rev . density 2)) $ jux rev $ loopAt 4 $ chop 16 $ sound "shakedown"
  # shape "0.6"

