d1 $ jux (rev . chop 8) $ sound "micron(3,8)" # n (slow 4 $ run 8)

d1 $ jux rev $ chop 8 $ struct "x(3,8)" $ slow 4 $ n (run (8)) # sound "claus"

d1 $ jux ((# speed "2") . rev) $ n "0 ~ ~ 5 6 ~ 5 ~" # sound "micron"

