let jux f p = stack [p |+| pan (pure (5/8)), f $ p |+| pan (pure (1/8))]


d1 $ jux (|*| speed "0.5") $ chop 64 $ jux' [id, ((|+| n "5") . (0.25 <~)), density 2 . (# speed "2")] $ sound "bd8:2(<3 3 5>,8,[0 2]/2)"
  # gain "0.6"

-- loopseq no 9

-- deconstructed gabba jungbass 6 at last

