-- mismatch step tempo

d1 $ off 0.25 (# crush "3" # gain "0.9" # speed "4") $ jux (4 <~) $ n (slow 8 $ scan 8) # sound "voodoo*8"
  
d2 $ sound "feel ~ feel:2"

-- face arpeggio

-- comb delay drop

-- sine nudge chop

-- arpy weave II

-- step frenzy

-- gabba 2s
