
cps 0.25

d1 $ slow 2 $ jux (rev . (|*| speed "1.5") . (1 <~)) $ off 0.125 (|+| n "12") $ off 0.25 (|+| n "[7 12]/2") $ slowspread (chop) [8,16,32,64,24] $ sound "[rash jx]/2" # n "c10 "
   # gain "0.9"
   # speed "0.125"

cps 0.25

d1 $ jux (iter 4) $ runWith 4 (density 2) $  n "2 3 ~ . 2 1 ~ . 1 3 ~ . 2 3 ~" # s "xx"
  # room "0.4"
  # size "0.6"
  # gain "0.55"
  # speed "0.125"
  # end "0.04"

d2 $ sound "~ wobble"

d3 $ stut 32 0.25 (- (1)) $  n "c7(3,8)" # sound "pulse"
  # end "0.01"

