
cps 0.25

d1 $ slow 2 $ jux (rev . (|*| speed "1.5") . (1 <~)) $ off 0.125 (|+| n "12") $ off 0.25 (|+| n "[7 12]/2") $ slowspread (chop) [8,16,32,64,24] $ sound "[rash jx]/2" # n "c10 "
   # gain "0.9"
   # speed "0.125"
   
