
d2 $ every 8 (const (s "bd9(3,8)" # shape 0.9)) $ jux rev $ stut "<4 8 [16 2]>" 0.5 (-0.25) $ (|+| speed 0.4) $ sound "bd9(3,8)"
  # gain 1.3
  # speed 1

d1 $ jux rev $ chunk 4 (hurry 2) $
  off 0.25 (|+| (n "<7 12>" |+| speed 2)) $ slow 2 $ n "3 ~ 3(3,8) [14 6]" # sound "jvr"
  # shape 0.7

