-- testing, starting in 1 min
-- Making Spicule http://www.pledgemusic.com/projects/spicule

-- sorry sound seems to have gone bad on the stream, hold tight..
-- trying to restart the live streams...

-- ok trying to restart, just streaming to a new post on facebook..

http://facebook.com/yaxulive

d1 $ sound "arpy"
