d1 $ slow 4 $
  stack [sound "cp [~ ~ arpy] bd*2 ~"
         ]
  # nudge "0.04"

  

loopTime t p =

import Sound.Tidal.Utils

let loopFirst p = splitQueries $ Pattern f
      where f a@(s,e) = mapSnds' plus $ mapFsts' plus $ arc p (minus a)
              where minus = mapArc (subtract (sam s))
                    plus = mapArc (+ (sam s))
    outside n = inside (1/n)
    timeLoop n = outside n loopFirst
    seqPLoop ps = timeLoop (maximum $ map (\(_,x,_) -> x) ps) $ seqP ps

:t seqPLoop


d1 $ seqPLoop [(0,2,sound "bd*2"),
               (2,4, sound "cp arpy"),
               (1,3, sound "arpy:2")
              ]

hush
d1 $ sound "bd"              


let p = "[1 2 3 4 5 6 7 8]/8" :: Pattern Int

density 8 $ inside (1/4) loopFirst p
let 
:t inside
let s = 4.1
    e = 4.5

let p = Pattern $ \(s,e) -> arc (slow 4 $ run 4) (mapArc (subtract (sam s)) (s,e)) 

density 2 $ p

subtract (sam 3.3) (3.3)

density 3 $ loopFirst "[1 2 3]/3"
