

d1 $ slow 4 $ (n (offadd 0.25 12 $ slow 2 $ offadd 0.25 7 "c3(3,8) [es3(5,8) f3*2 ~]") # s "xx")
  # room "0.7" # size "0.8"
  # nudge "[0,0.04]*4"
  # speed "[1,1.01]"
  # orbit "1" 

  
d2 $ slow 4 $ sound "[sometimes ~]/2" # unit "c" # speed "0.25"
  # orbit "2"
  # gain "1.4"
