
d3 $ spin 4 $ slow 3 $ jux (iter 4) $ every 4 (density 2) $ sound "[odx, future]([3 5]/2,8)"

d4 $ jux rev $ chop 8 $ slow 2 $ sound "casio:1*3 casio*2"
  # vowel (slow 5 "a e i o u")
  # gain "0.8"
  # speed "0.5"


d6 $ jux rev $ chop 16 $ sound "arc" # unit "c" # gain "1.4"

d1 $ jux rev $ slow 2 $ iter 4 $ chop 16 $ s "repetition" # n (irand 8)
  # unit "c" # speed "[0.5, 1]"
  # gain "1"
