d1 $ slow 2 $ off 0.25 (|-| n 4) $ n ((run "[8 16] <4 8 4 2>") + 7) # sound "micron"
  # speed 2

d2 $ jux (rev . (|+| n "<7 7 7 -2>")) $ off 0.25 (|+| n 7) $ n "c7(3,8) f6" # sound "rash"
  # gain 1.1
  # legato 2
  # orbit 1
  # size 0.95
  # room 0.6
  # cutoff 4000
  # resonance "<0.2 0.3 0.4>"

